!!!OTL: Graf Friedrich.
!!!OTL-incipit: Die Gassen sein so enge,
!!!ARE: Europa, Mitteleuropa, Deutschland (), Pommern, Ruegen
!!!YOR: 2, S. 204
!!    1933 gedruckt in Leipzig
!!!SCT: Q0048F
!!!TXL: @@DE
!!!YEM: Copyright 1995, estate of Helmut Schaffrath.
**kern	**text
*ICvox	*
!! Mixed meters:  6/8; 3/8
*M6/8	*
*k[f#]	*
*G:	*
{8d	1._Die
=1	=1
8dL	Gaſſen
8gJ	.
8g	.
8f#L	ſein
8ccJ	.
8a	ſo
=2	=2
8f#	en-
8d	-ge,
8r	.
8r	.
8r}	.
{8d	es
=3	=3
8gL	war
8f#J	.
8g	mal
8f#L	ein
8ccJ	.
8a	Ge-
=4	=4
*M3/8	*
8f#	-drän-
8d}	-ge
{8d	'Es
=5	=5
*M6/8	*
4b	kommt
8g	mein
4b	lieber
8g	.
=6	=6
4cc	Sohn
8b	ʒu
4a}	Haus
{8b	mit
=7	=7
8g	ſeiner
8f#	.
8e	verliebten
8dL	.
8gJ	.
8a	.
=8	=8
8aL	jungen
8gJ	.
8f#	.
4g}	Braut.'
{8d	'Es
=9	=9
4b	kommt
8g	mein
4b	lieber
8g	.
=10	=10
4cc	Sohn
8b	ʒu
4a}	Haus
{8b	mit
=11	=11
8g	ſeiner
8f#	.
8e	verliebten
8dL	.
8gJ	.
8a	.
=12	=12
8aL	jungen
8gJ	.
8f#	.
4g}	Braut.'
==	==
!!!AGN: Ballade, Hochzeit, Mord / Unfall, Tod
!! Zwei nahe Strophenvarianten abgedruckt. Hier nur die erste kodiert.
!!!ONB: ESAC (Essen Associative Code) Database: BALLADE
!!!AMT: irregular
!!!AIN: vox
!!!EED: Helmut Schaffrath
!!!EEV: 1.0
!!@@COMMENT:"E13222. Rügen."
!!@@END:
!!!source: Deutsche Volkslieder mit ihren Melodien. Herausgegeben vom Deutschen Volksliedarchiv. Zweiter Band Balladen. Berlin 1939.
!!!page: 204
!!!ENC: Anna Maria Matuszewska
!!!EEV: 2025/02/17
*-	*-
